; generated by PrusaSlicer 2.5.0+MacOS-arm64 on 2023-03-15 at 19:39:15 UTC

; 

; external perimeters extrusion width = 0.45mm
; perimeters extrusion width = 0.45mm
; infill extrusion width = 0.45mm
; solid infill extrusion width = 0.45mm
; top infill extrusion width = 0.45mm
; first layer extrusion width = 0.42mm

M73 P0 R7
M201 X9000 Y9000 Z500 E10000 ; sets maximum accelerations, mm/sec^2
M203 X500 Y500 Z12 E120 ; sets maximum feedrates, mm / sec
M204 P2000 R1500 T2000 ; sets acceleration (P, T) and retract acceleration (R), mm/sec^2
M205 X10.00 Y10.00 Z0.20 E4.50 ; sets the jerk limits, mm/sec
M205 S0 T0 ; sets the minimum extruding and travel feed rate, mm/sec
M107
;TYPE:Custom
M862.3 P "MK2.5S" ; printer model check
M862.1 P0.4 ; nozzle diameter check
M115 U3.11.0 ; tell printer latest fw version
G90 ; use absolute coordinates
M83 ; extruder relative mode
M104 S215 ; set extruder temp
M140 S60 ; set bed temp
M190 S60 ; wait for bed temp
M109 S215 ; wait for extruder temp
G28 W ; home all without mesh bed level
G80 ; mesh bed leveling

G1 Z0.2 F720
G1 Y-3 F1000 ; go outside print area
G92 E0
G1 X60 E9 F1000 ; intro line
G1 X100 E12.5 F1000 ; intro line

G92 E0
G21 ; set units to millimeters
G90 ; use absolute coordinates
M83 ; use relative distances for extrusion
M900 K0.05 ; Filament gcode LA 1.5
M900 K30 ; Filament gcode LA 1.0
M107
;LAYER_CHANGE
;Z:0.2
;HEIGHT:0.2
;BEFORE_LAYER_CHANGE
G92 E0.0
;0.2


G1 E-.8 F2100
M73 P1 R6
G1 Z.4 F720
;AFTER_LAYER_CHANGE
;0.2
G1 X111.497 Y99.977 F10800
G1 Z.2 F720
G1 E.8 F2100
M204 S800
;TYPE:Skirt/Brim
;WIDTH:0.42
G1 F1200
G1 X113.222 Y98.515 E.0709
G1 X130.432 Y88.727 E.62077
G1 X131.344 Y88.404 E.03034
G1 X132.434 Y88.406 E.03417
G1 X133.534 Y88.85 E.0372
G1 X134.302 Y89.579 E.0332
G1 X138.104 Y95.012 E.2079
G1 X138.88 Y96.805 E.06125
M73 P2 R6
G1 X140.103 Y101.217 E.14356
G1 X140.43 Y105.213 E.1257
G1 X140.103 Y108.783 E.11242
G1 X138.88 Y113.195 E.14357
G1 X138.104 Y114.988 E.06125
G1 X134.308 Y120.416 E.20767
G1 X133.619 Y121.093 E.03028
G1 X132.541 Y121.572 E.03699
G1 X131.362 Y121.599 E.03699
G1 X130.43 Y121.272 E.03098
G1 X112.929 Y111.335 E.631
G1 X112.177 Y110.707 E.03072
G1 X110.725 Y108.972 E.07094
G1 X110.157 Y107.839 E.03974
G1 X109.635 Y105.634 E.07103
G1 X109.571 Y104.774 E.02705
G1 X109.637 Y103.973 E.02521
G1 X109.845 Y103.127 E.02731
G1 X110.741 Y101.006 E.07219
G1 X111.462 Y100.025 E.03817
M204 S1000
G1 X111.741 Y100.264 F10800
M204 S800
G1 F1200
G1 X113.466 Y98.802 E.0709
G1 X130.618 Y89.055 E.61856
G1 X131.418 Y88.774 E.02661
M73 P3 R6
G1 X132.359 Y88.775 E.02949
G1 X133.322 Y89.161 E.03253
G1 X133.994 Y89.798 E.02905
G1 X137.761 Y95.167 E.20563
G1 X138.516 Y96.905 E.05943
G1 X139.739 Y101.318 E.14356
G1 X140.054 Y105.183 E.12161
G1 X139.739 Y108.682 E.11014
G1 X138.516 Y113.095 E.14357
G1 X137.761 Y114.833 E.05943
G1 X134.001 Y120.197 E.2054
G1 X133.325 Y120.837 E.02917
G1 X132.465 Y121.203 E.02931
G1 X131.433 Y121.229 E.03234
G1 X130.616 Y120.944 E.02715
G1 X113.115 Y111.007 E.631
G1 X112.466 Y110.465 E.02652
G1 X111.014 Y108.73 E.07094
G1 X110.524 Y107.752 E.0343
G1 X110.002 Y105.547 E.07103
G1 X109.946 Y104.805 E.02334
G1 X110.012 Y104.004 E.02521
G1 X110.192 Y103.274 E.02357
G1 X111.088 Y101.153 E.07219
G1 X111.705 Y100.313 E.03268
M204 S1000
; printing object shapr3d_export_2023-03-15_12h37m.stl id:0 copy 0
;WIPE_START
G1 F8640
G1 X113.466 Y98.802 E-.5356
G1 X114.311 Y98.322 E-.2244
;WIPE_END
G1 E-.04 F2100
G1 Z.6 F720
G1 X129 Y114.919 F10800
G1 Z.2 F720
M73 P4 R6
G1 E.8 F2100
M204 S800
;TYPE:Perimeter
;WIDTH:0.419999
G1 F1200
G1 X131.732 Y110.712 E.15731
G1 X131.813 Y110.511 E.00677
G1 X132.864 Y105.108 E.1726
G1 X132.864 Y104.892 E.00677
G1 X131.813 Y99.489 E.1726
G1 X131.732 Y99.288 E.00677
G1 X129 Y95.081 E.15731
G1 X131.808 Y92.273 E.1245
G1 X134.833 Y96.528 E.16368
G1 X136.607 Y102.084 E.18286
G1 X136.607 Y107.916 E.18286
G1 X134.833 Y113.472 E.18286
G1 X131.808 Y117.727 E.16368
G1 X129.042 Y114.962 E.12262
M204 S1000
G1 X128.517 Y114.97 F10800
M204 S800
;TYPE:External perimeter
G1 F1200
G1 X131.443 Y110.44 E.16911
G1 X132.494 Y105.036 E.1726
G1 X132.494 Y104.964 E.00226
G1 X131.443 Y99.56 E.1726
G1 X131.416 Y99.494 E.00226
G1 X128.517 Y95.03 E.16689
G1 X131.857 Y91.691 E.14806
G1 X135.174 Y96.357 E.17951
M73 P5 R6
G1 X136.984 Y102.025 E.18655
G1 X136.984 Y107.975 E.18655
G1 X135.174 Y113.643 E.18655
G1 X131.857 Y118.309 E.17951
G1 X128.559 Y115.013 E.14618
M204 S1000
G1 X128.815 Y114.703 F10800
;WIPE_START
G1 F8640
G1 X130.315 Y112.228 E-.76
;WIPE_END
G1 E-.04 F2100
G1 Z.6 F720
G1 X133.692 Y95.118 F10800
G1 Z.2 F720
G1 E.8 F2100
M204 S800
;TYPE:Solid infill
;WIDTH:0.421495
G1 F1200
G1 X131.527 Y92.954 E.09636
G1 X131.26 Y93.221 E.01192
G1 X134.289 Y96.25 E.13484
G1 X134.577 Y96.656 E.01567
G1 X134.773 Y97.27 E.0203
G1 X130.992 Y93.489 E.16833
G1 X130.724 Y93.757 E.01192
G1 X135.024 Y98.057 E.19143
G1 X135.275 Y98.843 E.02599
G1 X130.456 Y94.024 E.21453
G1 X130.189 Y94.292 E.01192
G1 X135.526 Y99.63 E.23763
G1 X135.778 Y100.416 E.02599
M73 P6 R6
G1 X129.921 Y94.56 E.26072
G1 X129.653 Y94.827 E.01192
G1 X136.029 Y101.203 E.28382
G1 X136.28 Y101.989 E.02599
G1 X129.385 Y95.095 E.30692
G1 X129.362 Y95.119 E.00106
G1 X130.265 Y96.51 E.05222
G1 X136.324 Y102.569 E.26973
G1 X136.324 Y103.104 E.01685
G1 X131.257 Y98.037 E.22556
G1 X131.973 Y99.14 E.04137
G1 X132.078 Y99.393 E.00864
G1 X136.324 Y103.64 E.18904
G1 X136.324 Y104.175 E.01685
G1 X132.208 Y100.059 E.18325
G1 X132.338 Y100.724 E.02134
G1 X136.324 Y104.71 E.17746
G1 X136.324 Y105.246 E.01685
G1 X132.468 Y101.389 E.17168
G1 X132.598 Y102.055 E.02134
G1 X136.324 Y105.781 E.16589
G1 X136.324 Y106.317 E.01685
G1 X132.728 Y102.72 E.1601
G1 X132.858 Y103.386 E.02134
M73 P7 R6
G1 X136.324 Y106.852 E.15432
G1 X136.324 Y107.387 E.01685
G1 X132.988 Y104.051 E.14853
G1 X133.118 Y104.716 E.02134
G1 X136.312 Y107.91 E.1422
G1 X136.182 Y108.316 E.01341
G1 X133.123 Y105.257 E.1362
G1 X133.035 Y105.705 E.01437
G1 X136.053 Y108.722 E.13432
G1 X135.923 Y109.128 E.01341
G1 X132.948 Y106.153 E.13245
G1 X132.86 Y106.601 E.01437
G1 X135.794 Y109.534 E.13058
G1 X135.664 Y109.94 E.01341
G1 X132.773 Y107.048 E.12871
G1 X132.685 Y107.496 E.01437
G1 X135.534 Y110.345 E.12683
G1 X135.405 Y110.751 E.01341
G1 X132.598 Y107.944 E.12496
G1 X132.51 Y108.392 E.01437
G1 X135.275 Y111.157 E.12309
G1 X135.146 Y111.563 E.01341
G1 X132.423 Y108.84 E.12121
G1 X132.335 Y109.288 E.01437
G1 X135.016 Y111.969 E.11934
G1 X134.887 Y112.374 E.01341
G1 X132.248 Y109.736 E.11747
G1 X132.16 Y110.184 E.01437
G1 X134.757 Y112.78 E.1156
G1 X134.627 Y113.186 E.01341
G1 X132.073 Y110.632 E.11372
G1 X131.973 Y110.86 E.00786
G1 X131.892 Y110.986 E.00471
G1 X134.441 Y113.535 E.1135
G1 X134.219 Y113.848 E.01209
G1 X131.681 Y111.31 E.11298
G1 X131.47 Y111.635 E.01218
M73 P8 R6
G1 X133.996 Y114.161 E.11246
G1 X133.774 Y114.474 E.01209
G1 X131.259 Y111.959 E.11194
G1 X131.048 Y112.284 E.01218
G1 X133.551 Y114.787 E.11142
G1 X133.329 Y115.1 E.01209
G1 X130.838 Y112.609 E.1109
G1 X130.627 Y112.933 E.01218
G1 X133.106 Y115.413 E.11038
G1 X132.884 Y115.726 E.01209
G1 X130.416 Y113.258 E.10986
G1 X130.205 Y113.582 E.01218
G1 X132.661 Y116.038 E.10934
G1 X132.439 Y116.351 E.01209
G1 X129.994 Y113.907 E.10882
G1 X129.784 Y114.232 E.01218
G1 X132.216 Y116.664 E.1083
G1 X131.994 Y116.977 E.01209
G1 X129.573 Y114.556 E.10778
G1 X129.362 Y114.881 E.01218
G1 X131.893 Y117.412 E.11267
M204 S1000
;WIPE_START
G1 F8640
G1 X129.566 Y115.084 E-.76
;WIPE_END
G1 E-.04 F2100
G1 Z.6 F720
G1 X120.157 Y107.92 F10800
G1 Z.2 F720
G1 E.8 F2100
M204 S800
;TYPE:Perimeter
;WIDTH:0.419999
G1 F1200
G1 X118.426 Y108.935 E.06292
G1 X116.543 Y109.052 E.05915
G1 X114.772 Y108.291 E.06042
G1 X113.56 Y106.842 E.05922
G1 X113.11 Y104.94 E.06128
G1 X113.156 Y104.389 E.01734
G1 X113.93 Y102.557 E.06236
G1 X115.367 Y101.339 E.05909
G1 X117.263 Y100.894 E.06106
G1 X119.039 Y101.305 E.05715
G1 X120.488 Y102.486 E.05861
G1 X121.3 Y104.298 E.06226
G1 X121.363 Y104.982 E.02153
G1 X121.208 Y106.094 E.0352
G1 X120.296 Y107.752 E.05935
G1 X120.195 Y107.873 E.00494
M204 S1000
G1 X120.392 Y108.219 F10800
M204 S800
;TYPE:External perimeter
G1 F1200
G1 X118.539 Y109.305 E.06737
G1 X116.476 Y109.434 E.06479
G1 X114.541 Y108.602 E.06606
G1 X113.214 Y107.016 E.06484
M73 P9 R6
G1 X112.729 Y104.969 E.06595
G1 X112.785 Y104.298 E.02111
G1 X113.617 Y102.327 E.06707
G1 X115.193 Y100.992 E.06475
G1 X117.263 Y100.507 E.06666
G1 X119.21 Y100.957 E.06265
G1 X120.796 Y102.25 E.06416
G1 X121.669 Y104.201 E.06702
G1 X121.743 Y104.991 E.02486
G1 X121.572 Y106.215 E.03875
G1 X120.626 Y107.934 E.06153
G1 X120.43 Y108.172 E.00967
M204 S1000
G1 X120.016 Y108.082 F10800
;WIPE_START
G1 F8640
G1 X118.539 Y109.305 E-.50918
G1 X117.455 Y109.373 E-.25082
;WIPE_END
G1 E-.04 F2100
G1 Z.6 F720
G1 X114.72 Y107.026 F10800
G1 Z.2 F720
G1 E.8 F2100
M204 S800
;TYPE:Perimeter
G1 F1200
G1 X114.143 Y105.971 E.03771
G1 X114.077 Y105.723 E.00803
G1 X114.034 Y104.495 E.03855
G1 X114.086 Y104.238 E.00821
G1 X114.613 Y103.097 E.03939
G1 X114.774 Y102.892 E.00817
G1 X115.727 Y102.132 E.03825
G1 X115.956 Y102.022 E.00793
G1 X117.112 Y101.761 E.03719
G1 X117.369 Y101.763 E.00804
G1 X118.585 Y102.054 E.03921
G1 X118.819 Y102.172 E.00821
G1 X119.762 Y102.971 E.03876
G1 X119.918 Y103.182 E.00822
G1 X120.401 Y104.324 E.03887
G1 X120.483 Y104.97 E.02043
G1 X120.307 Y105.839 E.02779
G1 X120.139 Y106.466 E.02036
G1 X119.22 Y107.577 E.04519
G1 X119.08 Y107.664 E.00519
G1 X117.927 Y108.165 E.03941
G1 X117.669 Y108.211 E.00823
G1 X116.433 Y108.14 E.03881
G1 X116.182 Y108.064 E.00823
G1 X115.113 Y107.443 E.03875
G1 X114.749 Y107.079 E.01615
M204 S1000
G1 X115.026 Y106.82 F10800
M204 S800
;TYPE:External perimeter
G1 F1200
G1 X114.476 Y105.793 E.03653
G1 X114.411 Y104.482 E.04116
G1 X114.429 Y104.396 E.00274
G1 X114.955 Y103.255 E.03939
G1 X115.009 Y103.187 E.00273
G1 X115.963 Y102.426 E.03825
G1 X116.039 Y102.39 E.00264
G1 X117.195 Y102.129 E.03719
G1 X117.281 Y102.129 E.00268
G1 X118.497 Y102.421 E.03921
G1 X118.575 Y102.46 E.00274
G1 X119.519 Y103.259 E.03876
G1 X119.57 Y103.329 E.00274
G1 X120.054 Y104.471 E.03887
G1 X120.107 Y105.001 E.01671
G1 X119.809 Y106.284 E.04131
G1 X119.232 Y106.985 E.02846
G1 X118.929 Y107.318 E.01411
G1 X117.777 Y107.82 E.03941
G1 X117.691 Y107.835 E.00274
G1 X116.455 Y107.763 E.03881
G1 X116.371 Y107.738 E.00274
G1 X115.303 Y107.117 E.03875
G1 X115.063 Y106.867 E.01087
M204 S1000
G1 X114.629 Y106.871 F10800
;WIPE_START
G1 F8640
G1 X114.476 Y105.793 E-.28256
G1 X114.411 Y104.482 E-.30311
G1 X114.429 Y104.396 E-.02014
G1 X114.708 Y103.79 E-.15419
;WIPE_END
G1 E-.04 F2100
G1 Z.6 F720
G1 X118.317 Y101.254 F10800
G1 Z.2 F720
G1 E.8 F2100
M204 S800
;TYPE:Solid infill
;WIDTH:0.421699
G1 F1200
G1 X121.026 Y103.963 E.12067
M204 S1000
G1 X120.284 Y103.757 F10800
M204 S800
G1 F1200
G1 X121.035 Y104.508 E.03347
G1 X121.079 Y104.975 E.01477
G1 X121.065 Y105.074 E.00313
G1 X120.749 Y104.757 E.01409
G1 X120.767 Y104.981 E.00707
G1 X120.76 Y105.134 E.00481
G1 X120.728 Y105.272 E.00447
G1 X120.999 Y105.544 E.0121
M73 P10 R6
G1 X120.935 Y106.003 E.0146
G1 X120.627 Y105.707 E.01346
G1 X120.526 Y106.142 E.01406
G1 X120.741 Y106.356 E.00955
G1 X120.551 Y106.702 E.01242
G1 X120.405 Y106.557 E.00647
G1 X120.307 Y106.722 E.00606
G1 X120.184 Y106.871 E.00609
G1 X120.36 Y107.048 E.00787
G1 X120.17 Y107.393 E.01242
G1 X119.941 Y107.164 E.01022
G1 X119.698 Y107.457 E.01198
G1 X119.953 Y107.711 E.01135
G1 X119.615 Y107.909 E.01233
G1 X119.446 Y107.741 E.00752
G1 X119.286 Y107.877 E.00662
G1 X119.12 Y107.95 E.00572
G1 X119.278 Y108.107 E.00702
G1 X118.94 Y108.305 E.01233
G1 X118.748 Y108.113 E.00855
G1 X118.376 Y108.277 E.0128
G1 X118.602 Y108.503 E.01008
G1 X118.341 Y108.657 E.00955
G1 X118.227 Y108.664 E.00359
G1 X117.999 Y108.436 E.01014
G1 X117.757 Y108.494 E.00786
G1 X117.506 Y108.479 E.0079
G1 X117.723 Y108.695 E.00963
G1 X117.218 Y108.726 E.01591
G1 X116.935 Y108.443 E.01261
G1 X116.364 Y108.408 E.01802
G1 X116.874 Y108.918 E.02272
M204 S1000
;WIPE_START
G1 F8640
G1 X116.364 Y108.408 E-.16654
G1 X116.935 Y108.443 E-.13214
G1 X117.218 Y108.726 E-.09244
G1 X117.723 Y108.695 E-.11667
G1 X117.506 Y108.479 E-.07059
G1 X117.757 Y108.494 E-.05793
G1 X117.999 Y108.436 E-.05759
G1 X118.202 Y108.638 E-.0661
;WIPE_END
G1 E-.04 F2100
G1 Z.6 F720
G1 X118.427 Y101.9 F10800
G1 Z.2 F720
G1 E.8 F2100
M204 S800
G1 F1200
G1 X117.846 Y101.319 E.02586
G1 X117.264 Y101.185 E.01883
G1 X117.193 Y101.201 E.0023
G1 X117.493 Y101.501 E.01337
G1 X117.259 Y101.464 E.00745
G1 X116.962 Y101.506 E.00947
G1 X116.759 Y101.303 E.00904
G1 X116.325 Y101.405 E.01404
G1 X116.528 Y101.608 E.00906
G1 X116.095 Y101.71 E.01403
G1 X115.891 Y101.506 E.00908
G1 X115.498 Y101.598 E.0127
G1 X115.471 Y101.622 E.00114
G1 X115.681 Y101.832 E.00936
G1 X115.369 Y102.056 E.01209
G1 X115.181 Y101.868 E.00839
G1 X114.891 Y102.113 E.01197
G1 X115.071 Y102.294 E.00803
G1 X114.773 Y102.531 E.01201
G1 X114.601 Y102.359 E.00767
G1 X114.311 Y102.605 E.01197
G1 X114.486 Y102.78 E.0078
G1 X114.359 Y102.973 E.00729
G1 X114.291 Y103.12 E.0051
G1 X114.085 Y102.915 E.00915
G1 X113.926 Y103.292 E.01288
G1 X114.122 Y103.487 E.0087
G1 X113.952 Y103.853 E.01271
G1 X113.767 Y103.668 E.00825
G1 X113.608 Y104.045 E.01288
G1 X113.792 Y104.229 E.00818
G1 X113.751 Y104.488 E.00826
G1 X113.76 Y104.732 E.00771
G1 X113.449 Y104.421 E.01385
G1 X113.434 Y104.457 E.00123
G1 X113.397 Y104.905 E.01415
G1 X113.779 Y105.287 E.01702
G1 X113.81 Y105.854 E.01788
G1 X113.557 Y105.601 E.01126
G1 X113.723 Y106.303 E.02271
G1 X116.203 Y108.783 E.11047
M204 S1000
; stop printing object shapr3d_export_2023-03-15_12h37m.stl id:0 copy 0
M106 S84.15
;LAYER_CHANGE
;Z:0.35
;HEIGHT:0.15
;BEFORE_LAYER_CHANGE
G92 E0.0
;0.35


;WIPE_START
G1 F8640
G1 X113.876 Y106.455 E-.76
;WIPE_END
G1 E-.04 F2100
G1 Z.6 F720
;AFTER_LAYER_CHANGE
;0.35
G1 X110.044 Y107.362 F10800
G1 Z.35 F720
G1 E.8 F2100
;TYPE:Skirt/Brim
;WIDTH:0.42
G1 F3000
G1 X109.635 Y105.634 E.04294
G1 X109.571 Y104.774 E.02086
G1 X109.637 Y103.973 E.01944
G1 X109.845 Y103.127 E.02107
G1 X110.741 Y101.006 E.05569
G1 X111.497 Y99.977 E.03089
G1 X113.222 Y98.515 E.05469
G1 X130.432 Y88.727 E.47883
G1 X131.344 Y88.404 E.0234
G1 X132.434 Y88.406 E.02635
G1 X133.534 Y88.85 E.0287
G1 X134.302 Y89.579 E.02561
G1 X138.104 Y95.012 E.16037
G1 X138.88 Y96.805 E.04724
G1 X140.103 Y101.217 E.11074
G1 X140.43 Y105.213 E.09696
G1 X140.103 Y108.783 E.08671
G1 X138.88 Y113.195 E.11074
G1 X138.104 Y114.988 E.04724
G1 X134.308 Y120.416 E.16018
G1 X133.619 Y121.093 E.02336
G1 X132.541 Y121.572 E.02853
G1 X131.362 Y121.599 E.02853
G1 X130.43 Y121.272 E.02389
G1 X112.929 Y111.335 E.48671
G1 X112.177 Y110.707 E.0237
M73 P11 R6
G1 X110.725 Y108.972 E.05472
G1 X110.157 Y107.839 E.03065
G1 X110.058 Y107.42 E.01039
G1 X110.425 Y107.334 F10800
G1 F3000
G1 X110.002 Y105.547 E.04439
G1 X109.946 Y104.805 E.01801
G1 X110.012 Y104.004 E.01944
G1 X110.192 Y103.274 E.01818
G1 X111.088 Y101.153 E.05569
G1 X111.741 Y100.264 E.02666
G1 X113.466 Y98.802 E.05469
G1 X130.618 Y89.055 E.47712
G1 X131.418 Y88.774 E.02052
G1 X132.359 Y88.775 E.02275
G1 X133.322 Y89.161 E.02509
G1 X133.994 Y89.798 E.0224
G1 X137.761 Y95.167 E.15861
G1 X138.516 Y96.905 E.04584
G1 X139.739 Y101.318 E.11074
G1 X140.054 Y105.183 E.0938
G1 X139.739 Y108.682 E.08496
G1 X138.516 Y113.095 E.11074
G1 X137.761 Y114.833 E.04584
G1 X134.001 Y120.197 E.15843
G1 X133.325 Y120.837 E.0225
G1 X132.465 Y121.203 E.02261
G1 X131.433 Y121.229 E.02495
G1 X130.616 Y120.944 E.02094
G1 X113.115 Y111.007 E.48671
G1 X112.466 Y110.465 E.02045
G1 X111.014 Y108.73 E.05472
G1 X110.524 Y107.752 E.02646
G1 X110.439 Y107.392 E.00894
; printing object shapr3d_export_2023-03-15_12h37m.stl id:0 copy 0
;WIPE_START
G1 F8640
G1 X110.002 Y105.547 E-.43768
G1 X109.946 Y104.805 E-.17192
G1 X110 Y104.156 E-.1504
;WIPE_END
G1 E-.04 F2100
G1 Z.75 F720
G1 X132.066 Y102.757 F10800
G1 Z.35 F720
G1 E.8 F2100
M204 S800
;TYPE:Perimeter
;WIDTH:0.449999
G1 F3000
G1 X132.149 Y102.617 E.00424
G1 X132.162 Y102.323 E.00766
G1 X131.628 Y99.576 E.07292
G1 X131.538 Y99.354 E.00623
